!!!ONB: MCCC : IWM0408_01 : Extracted Monophonic Melody
!!!COM: Mozart, Wolfgang Amadeus
!!!OPR: Piano Sonata No.8
!!!OMV: 1
!!!SCT: K.310 ; K⁶.300d ; Op.4 No.3
!!!ODT: 1778///
**kern
*clefG2
*k[]
*a:
*M4/4
*met(c)
*MM120
=1
4ee
8.ee
16ee
4ee
8.cc
16a
=2
8a
8g#
2g#
8.dd
16b
=3
4ee
8.ee
16ee
8ee
16ff
16ee
16dd
16cc
16b
16a
=4
8a
8g#
2g#
8.dd
16b
=5
8.ee
16cc
4ee
8r
8cc
8dd
8ee
=6
4ee
8ff
8r
8r
8b
8cc
8dd
=7
4dd#
8ee
8r
8r
8a
8b
8cc
=8
8.cc
16b
8.ff
16dd
8.cc
16ee
8.dd
16b
=9
4ee
8.ee
16ee
8ee
16ff
16ee
16dd
16cc
16b
16a
=10
8a
8g#
[4g#
8.g#]
16g#
8.dd
16b
=11
4ee
8.ee
16ee
16dd#
16ee
16ff
16ee
16dd
16cc
16b
16a
=12
8cc
8b-
[4b-
8.b-]
16ee
8.gg
16bb-
=13
8bb-
8aa
8ff
8dd
8dd
8cc#
8ee
8gg
=14
8gg
8ff#
8r
8ff
8r
8dd#
8r
8ee
=15
8ee
8dd
4.dd
16ee
16dd
16dd
16cc
16b
16cc
=16
4b
8.gg
16gg
4gg
4gg
=17
4.ccc
16bb-
16aa-
4gg
4ff#
=18
4gg
8.gg
16gg
4gg
4gg
=19
4.ccc
16bb-
16aa-
4gg
4ff#
=20
16gg
16dd
16b
16dd
16gg
16ee-
16cc
16ee-
16gg
16dd
16b
16dd
16gg
16ee-
16cc
16ee-
=21
16gg
16dd
16b
16dd
16gg
16ee-
16cc
16ee-
16dd
16gg
16ee-
16gg
16dd
16gg
16ee-
16gg
=22
4dd
4gg:
8r
8gg
8aa
8bb
=23
16ccc
16ddd
16bb
16ddd
16ccc
16ddd
16bb
16ddd
16ccc
16ddd
16bb
16ccc
16aa
16bb
16gg
16aa
=24
16ff
16gg
16ee
16gg
16ff
16gg
16ee
16gg
16ff
16gg
16ee
16ff
16dd
16ee
16cc
16dd
=25
16b
16cc
16a
16cc
16b
16cc
16a
16cc
16b
16cc
16a
16b
16g
16a
16f
16g
=26
16e
16g
16f
16e
16f
16g
16a
16b
16cc
16dd
16cc
16b
16cc
16dd
16ee
16ff
=27
16gg
16aa
16ff#
16aa
16gg
16aa
16ff#
16aa
16gg
16ccc
16bb
16ccc
16ddd
16ccc
16bb
16ccc
=28
16bb
16aa
16gg#
16aa
16gg
16ff
16ee
16ff
16ee
16dd
16cc#
16dd
16cc#
16dd
16ee
16ff
=29
16aa
16gg
16ff#
16gg
16ff
16ee
16dd
16ee
16dd
16cc
16b
16cc
16b
16cc
16dd
16ee
=30
16ff
16gg
16ee
16ff
16dd
16ee
16cc
16dd
16b
16cc
16a
16b
16g
16a
16f
16g
=31
16e
16g
16f
16e
16f
16g
16a
16b
16cc
16dd
16ee
16dd
16cc
16b-
16a
16g#
=32
16a
16b
16cc
16b
16cc
16cc#
16dd
16cc#
16dd
16ee
16ff
16ee
16ff
16gg#
16aa
16gg#
=33
16aa
16bb
16ccc
16bb
16ccc
16bb
16ccc
16bb
16ddd
16ccc
16bb
16aa
16bb
16aa
16gg
16ff
=34
16ee
16gg
16aa
16gg
16ff
16ee
16dd
16cc
2dd
=35
16r
16ccc
16bb
16aa
16gg
16aa
16ff#
16aa
16gg
16aa
16ff#
16aa
16gg
16aa
16ff
16gg
=36
16ee
16ccc
16bb
16aa
16gg
16aa
16ff#
16aa
16gg
16aa
16ff#
16aa
16gg
16aa
16ff
16gg
=37
16ee
16ff
16dd
16ee
16cc
16dd
16b
16cc
16a
16b
16g
16a
16f
16g
16e
16f
=38
8d
16e
16f
16g
16a
16b
16cc
16dd
16ee
16ff
16gg
16aa
16bb
16ccc
16ddd
=39
16eee
16ccc
16bb
16ccc
16bb
16aa
16gg
16ff
4ee
4dd
=40
4cc
4r
4r
8bb
8gg
=41
4ccc
4r
4r
8bb
8gg
=42
4ccc
8.gg
32ff#
32gg
[2ccc
=43
4ccc]
8.ddd
16eee
4fff
8.bb
32aa
32bb
=44
16ccc
16bb
16ccc
16gg
16bb
16aa
16gg
16ff
16ee
16ff
16gg
16ee
16dd
16ee
16ff
16dd
=45
4cc
8.ee
16ee
4ee
8.ee
16ee
=46
4dd
8.dd
16dd
4dd
8.gg
16gg
=47
4ee
8.ccc
16ccc
4ccc
8.ccc
16ccc
=48
4ccc
8.ccc
16ccc
4bb
8.bb
16bb
=49
4ccc
4gg
4ee
4r
=||50
4ee
8.ee
16ee
4ee
8.cc
16a
=51
8a
8g#
2g#
8.dd
16b
=52
4ee
8.ee
16ee
8ee
16ff
16ee
16dd
16cc
16b
16a
=53
8a
8g#
2g#
8.dd
16b
=54
8.ee
16cc
4ee
8r
8cc
8dd
8ee
=55
4ee
8ff
8r
8r
8b
8cc
8dd
=56
4dd#
8ee
8r
8r
8a
8b
8cc
=57
8.cc
16b
8.ff
16dd
8.cc
16ee
8.dd
16b
=58
4ee
8.ee
16ee
8ee
16ff
16ee
16dd
16cc
16b
16a
=59
8a
8g#
[4g#
8.g#]
16g#
8.dd
16b
=60
4ee
8.ee
16ee
16dd#
16ee
16ff
16ee
16dd
16cc
16b
16a
=61
8cc
8b-
[4b-
8.b-]
16ee
8.gg
16bb-
=62
8bb-
8aa
8ff
8dd
8dd
8cc#
8ee
8gg
=63
8gg
8ff#
8r
8ff
8r
8dd#
8r
8ee
=64
8ee
8dd
4.dd
16ee
16dd
16dd
16cc
16b
16cc
=65
4b
8.gg
16gg
4gg
4gg
=66
4.ccc
16bb-
16aa-
4gg
4ff#
=67
4gg
8.gg
16gg
4gg
4gg
=68
4.ccc
16bb-
16aa-
4gg
4ff#
=69
16gg
16dd
16b
16dd
16gg
16ee-
16cc
16ee-
16gg
16dd
16b
16dd
16gg
16ee-
16cc
16ee-
=70
16gg
16dd
16b
16dd
16gg
16ee-
16cc
16ee-
16dd
16gg
16ee-
16gg
16dd
16gg
16ee-
16gg
=71
4dd
4gg:
8r
8gg
8aa
8bb
=72
16ccc
16ddd
16bb
16ddd
16ccc
16ddd
16bb
16ddd
16ccc
16ddd
16bb
16ccc
16aa
16bb
16gg
16aa
=73
16ff
16gg
16ee
16gg
16ff
16gg
16ee
16gg
16ff
16gg
16ee
16ff
16dd
16ee
16cc
16dd
=74
16b
16cc
16a
16cc
16b
16cc
16a
16cc
16b
16cc
16a
16b
16g
16a
16f
16g
=75
16e
16g
16f
16e
16f
16g
16a
16b
16cc
16dd
16cc
16b
16cc
16dd
16ee
16ff
=76
16gg
16aa
16ff#
16aa
16gg
16aa
16ff#
16aa
16gg
16ccc
16bb
16ccc
16ddd
16ccc
16bb
16ccc
=77
16bb
16aa
16gg#
16aa
16gg
16ff
16ee
16ff
16ee
16dd
16cc#
16dd
16cc#
16dd
16ee
16ff
=78
16aa
16gg
16ff#
16gg
16ff
16ee
16dd
16ee
16dd
16cc
16b
16cc
16b
16cc
16dd
16ee
=79
16ff
16gg
16ee
16ff
16dd
16ee
16cc
16dd
16b
16cc
16a
16b
16g
16a
16f
16g
=80
16e
16g
16f
16e
16f
16g
16a
16b
16cc
16dd
16ee
16dd
16cc
16b-
16a
16g#
=81
16a
16b
16cc
16b
16cc
16cc#
16dd
16cc#
16dd
16ee
16ff
16ee
16ff
16gg#
16aa
16gg#
=82
16aa
16bb
16ccc
16bb
16ccc
16bb
16ccc
16bb
16ddd
16ccc
16bb
16aa
16bb
16aa
16gg
16ff
=83
16ee
16gg
16aa
16gg
16ff
16ee
16dd
16cc
2dd
=84
16r
16ccc
16bb
16aa
16gg
16aa
16ff#
16aa
16gg
16aa
16ff#
16aa
16gg
16aa
16ff
16gg
=85
16ee
16ccc
16bb
16aa
16gg
16aa
16ff#
16aa
16gg
16aa
16ff#
16aa
16gg
16aa
16ff
16gg
=86
16ee
16ff
16dd
16ee
16cc
16dd
16b
16cc
16a
16b
16g
16a
16f
16g
16e
16f
=87
8d
16e
16f
16g
16a
16b
16cc
16dd
16ee
16ff
16gg
16aa
16bb
16ccc
16ddd
=88
16eee
16ccc
16bb
16ccc
16bb
16aa
16gg
16ff
4ee
4dd
=89
4cc
4r
4r
8bb
8gg
=90
4ccc
4r
4r
8bb
8gg
=91
4ccc
8.gg
32ff#
32gg
[2ccc
=92
4ccc]
8.ddd
16eee
4fff
8.bb
32aa
32bb
=93
16ccc
16bb
16ccc
16gg
16bb
16aa
16gg
16ff
16ee
16ff
16gg
16ee
16dd
16ee
16ff
16dd
=94
4cc
8.ee
16ee
4ee
8.ee
16ee
=95
4dd
8.dd
16dd
4dd
8.gg
16gg
=96
4ee
8.ccc
16ccc
4ccc
8.ccc
16ccc
=97
4ccc
8.ccc
16ccc
4bb
8.bb
16bb
=98
4ccc
4gg
4ee
4r
=||99
4gg
8.gg
16gg
4gg
8.ee
16cc
=100
8cc
8b
2b
8.ff
16dd
=101
4gg
8.gg
16gg
8gg
16aa
16gg
16ff
16ee
16dd
16cc
=102
8cc
8b-
4.b-
8dd-
8ee
8gg
=103
8bb-
8gg
8ee
8cc
8b-
8dd-
8ee
8gg
=104
8bb-
8gg
8ee
8cc
8b-
8dd-
8ee
8gg
=105
16bb-
16gg
16ee
16cc
16gg
16ee
16cc
16b-
16ee
16cc
16b-
16g
16cc
16b-
16g
16e
=106
16a#
16g
16e
16c
16g
16e
16c
16B
16A#
16g
16f#
16g
16a
16g
16f#
16e
=107
4b
8.b
16b
4b
4b
=108
[2cc
8.cc]
16dd#
8.ee
16cc
=109
[2b
8.b]
16dd#
8.ee
16b
=110
[2a
8.a]
16b
8.cc
16a
=111
4g#
8.ee
16ee
4ee
4ee
=112
[2ff
8.ff]
16gg#
8.aa
16ff
=113
[2ee
8.ee]
16gg#
8.aa
16ee
=114
[2dd
8.dd]
16ee
8.ff
16dd
=115
4cc#
8.aa
16aa
4aa
4aa
=116
[2bb-
8.bb-]
16ccc#
8.ddd
16bb-
=117
[2aa
8.aa]
16ccc#
8.ddd
16aa
=118
[2gg
8.gg]
16aa
8.bb-
16gg
=119
4ff
8r
16r
16ff
4ddd
8.ff
32ee
32ff
=120
4ee
8r
16r
16ee
4ccc
8.ee
32dd
32ee
=121
4dd
8r
16r
16dd
4bb
8.dd
32cc
32dd
=122
16cc
16a
16cc
16ee
16e
16g
16b
16ee
16e
16a
16cc
16ee
16d#
16a
16cc
16dd#
=123
16ee
16e
16g#
16b
16ee
16g#
16b
16ee
16gg#
16b
16ee
16gg#
16bb
16gg#
16ee
16dd
=124
16cc
16a
16cc
16ee
16aa
16cc
16ee
16aa
16ccc
16aa
16ee
16cc
16aa
16ff#
16cc
16a
=125
16ee
16e
16g#
16b
16ee
16g#
16b
16ee
16gg#
16b
16ee
16gg#
16bb
16gg#
16ee
16dd
=126
16cc
16a
16cc
16ee
16aa
16cc
16ee
16aa
16ccc
16aa
16ee
16cc
16aa
16ff#
16cc
16a
=127
16g#
16b
16ee
16g#
16a
16b
16dd#
16a
16g#
16b
16ee
16g#
16a
16b
16dd#
16a
=128
8ee
16e
16d#
16e
16f
16f#
16g
16g#
16a
16b-
16b
16cc
16cc#
16dd
16dd#
=129
4ee
8.ee
16ee
4ee
8.cc
16a
=130
8a
8g#
2g#
8.dd
16b
=131
4ee
8.ee
16ee
8ee
16ff
16ee
16dd
16cc
16b
16a
=132
8a
8g#
2g#
8.dd
16b
=133
8.ee
16cc
4ee
8r
8cc
8dd
8ee
=134
4ee
8ff
8r
8r
8b
8cc
8dd
=135
4dd#
8ee
8r
8r
8a
8b
8cc
=136
8.cc
16b
8.ff
16dd
8.cc
16ee
8.dd
16b
=137
16cc
16aa
16cc
16aa
16cc
16aa
16cc
16aa
16cc
16aa
16cc
16aa
16cc
16aa
16cc
16aa
=138
16b
16aa
16b
16aa
16b
16aa
16b
16aa
16b
16gg
16b
16gg
16b-
16gg
16b-
16gg
=139
16a
16gg
16a
16gg
16a
16gg
16a
16gg
16a
16ff
16a
16ff
16a
16ff
16a
16ff
=140
16g
16ff
16g
16ff
16g
16ff
16g
16ff
16g
16ee
16g
16ee
16g
16ee
16g
16ee
=141
16f
16ee
16f
16ee
16f
16ee
16f
16ee
16f
16dd
16f
16dd
16f
16dd
16f
16dd
=142
16e
16dd
16e
16dd
16e
16cc
16e
16cc
16e
16b
16e
16b
16b
16ee
16b
16ee
=143
8ee
8dd#
8r
8dd
8dd
8cc#
8r
8cc
=144
8a#
8b
8r
8cc#
8r
8dd
8r
8ee
=145
8gg
4ff
8ee
8dd
8cc
8b
8a
=146
4ee
8.ee
16ee
4ee
4ee
=147
4.aa
16gg
16ff
4ee
4dd#
=148
4ee:
8.ee
16ee
4ee
4ee
=149
4.aa
16gg
16ff
4ee
4dd#
=150
16ee
16b
16g#
16b
16ee
16cc
16a
16cc
16ee
16b
16g#
16b
16ee
16cc
16a
16cc
=151
16ee
16b
16g#
16b
16ee
16cc
16a
16cc
16b
16ee
16cc
16ee
16b
16ee
16cc
16ee
=152
4b
4ee
8r
8ee
8ff#
8gg#
=153
16aa
16bb
16gg#
16bb
16aa
16bb
16gg#
16bb
16aa
16bb
16gg
16aa
16ff
16gg
16ee
16ff
=154
16dd
16ee
16cc#
16ee
16dd
16ee
16cc#
16ee
16dd
16ee
16cc
16dd
16b
16cc
16a
16b
=155
16g#
16b
16a
16b
16g#
16b
16a
16b
16g#
16b
16f
16b
16e
16b
16d
16b
=156
16c
16e
16d#
16e
16f
16e
16g#
16e
16a
16e
16b
16e
16cc
16e
16dd
16e
=157
16ee
16ff
16dd#
16ff
16ee
16ff
16dd#
16ff
16ee
16aa
16gg#
16aa
16bb
16aa
16gg#
16aa
=158
16gg
16ff
16ee
16ff
16ee
16dd
16cc#
16dd
16cc
16b-
16a
16b-
16a
16b-
16cc
16dd
=159
16ff
16ee
16dd#
16ee
16dd
16cc
16b
16cc
16b
16a
16g#
16a
16g#
16a
16b
16cc
=160
16dd
16ff
16cc
16ff
16b
16ff
16a
16ff
16g#
16b
16f
16b
16e
16b
16d
16b
=161
16c
16cc
16b
16cc
16dd
16cc
16b
16a
16g#
16dd
16cc#
16dd
16ee
16dd
16cc
16b
=162
16a
16b
16cc
16b
16cc
16dd#
16ee
16dd#
16ee
16gg#
16aa
16gg#
16aa
16gg
16ff
16ee
=163
16ff
16gg
16aa
16ff
16dd
16ee
16ff
16dd
16b
16cc
16dd
16b
16ee
16ff
16dd
16b
=164
16dd#
16ee
16ff
16ee
16dd
16cc
16b
16a
2b
=165
16r
16aa
16gg
16ff
16ee
16ff
16dd#
16ff
16ee
16ff
16dd#
16ff
16ee
16ff
16dd
16ee
=166
16cc
16aa
16gg
16ff
16ee
16ff
16dd#
16ff
16ee
16ff
16dd#
16ff
16ee
16ff
16dd
16ee
=167
16cc
16dd
16ee
16dd
16cc
16b
16a
16g#
16a
16b
16cc
16b
16a
16g
16f
16e
=168
16d
16B-
16f
16d
16b-
16f
16dd
16b-
16ff
16dd
16gg#
16ff
16bb
16gg#
16ddd
16bb
=169
16eee
16ccc
16aa
16ee
16gg
16ff
16ee
16dd
4cc
4b
=170
4a
4r
4r
8gg#
8ee
=171
4aa
4r
4r
8gg#
8ee
=172
4aa
8.ee
32dd
32ee
[2aa
=173
4aa]
8.bb
16ccc
4ddd
8.gg#
32ff#
32gg#
=174
16aa
16gg#
16aa
16ee
16gg
16ff
16ee
16dd
16cc
16dd
16ee
16cc
16b
16cc
16dd
16b
=175
16ddd
16fff
16bb
16ddd
16gg#
16bb
16ff
16gg#
16dd
16ff
16b
16dd
16g#
16b
16f
16g#
=176
1ccc
=177
16r
16aa
16ee
16cc
16a
16e
16c
16A
4e
4ee
=178
4a
8.cc
16cc
4cc
8.cc
16cc
=179
4b
8.b
16b
4ee
8.ee
16ee
=180
4cc
8.aa
16aa
4aa
8.aa
16aa
=181
4aa
8.aa
16aa
4gg#
8.gg#
16gg#
=182
4aa
4ee
4cc
4r
=||183
4gg
8.gg
16gg
4gg
8.ee
16cc
=184
8cc
8b
2b
8.ff
16dd
=185
4gg
8.gg
16gg
8gg
16aa
16gg
16ff
16ee
16dd
16cc
=186
8cc
8b-
4.b-
8dd-
8ee
8gg
=187
8bb-
8gg
8ee
8cc
8b-
8dd-
8ee
8gg
=188
8bb-
8gg
8ee
8cc
8b-
8dd-
8ee
8gg
=189
16bb-
16gg
16ee
16cc
16gg
16ee
16cc
16b-
16ee
16cc
16b-
16g
16cc
16b-
16g
16e
=190
16a#
16g
16e
16c
16g
16e
16c
16B
16A#
16g
16f#
16g
16a
16g
16f#
16e
=191
4b
8.b
16b
4b
4b
=192
[2cc
8.cc]
16dd#
8.ee
16cc
=193
[2b
8.b]
16dd#
8.ee
16b
=194
[2a
8.a]
16b
8.cc
16a
=195
4g#
8.ee
16ee
4ee
4ee
=196
[2ff
8.ff]
16gg#
8.aa
16ff
=197
[2ee
8.ee]
16gg#
8.aa
16ee
=198
[2dd
8.dd]
16ee
8.ff
16dd
=199
4cc#
8.aa
16aa
4aa
4aa
=200
[2bb-
8.bb-]
16ccc#
8.ddd
16bb-
=201
[2aa
8.aa]
16ccc#
8.ddd
16aa
=202
[2gg
8.gg]
16aa
8.bb-
16gg
=203
4ff
8r
16r
16ff
4ddd
8.ff
32ee
32ff
=204
4ee
8r
16r
16ee
4ccc
8.ee
32dd
32ee
=205
4dd
8r
16r
16dd
4bb
8.dd
32cc
32dd
=206
16cc
16a
16cc
16ee
16e
16g
16b
16ee
16e
16a
16cc
16ee
16d#
16a
16cc
16dd#
=207
16ee
16e
16g#
16b
16ee
16g#
16b
16ee
16gg#
16b
16ee
16gg#
16bb
16gg#
16ee
16dd
=208
16cc
16a
16cc
16ee
16aa
16cc
16ee
16aa
16ccc
16aa
16ee
16cc
16aa
16ff#
16cc
16a
=209
16ee
16e
16g#
16b
16ee
16g#
16b
16ee
16gg#
16b
16ee
16gg#
16bb
16gg#
16ee
16dd
=210
16cc
16a
16cc
16ee
16aa
16cc
16ee
16aa
16ccc
16aa
16ee
16cc
16aa
16ff#
16cc
16a
=211
16g#
16b
16ee
16g#
16a
16b
16dd#
16a
16g#
16b
16ee
16g#
16a
16b
16dd#
16a
=212
8ee
16e
16d#
16e
16f
16f#
16g
16g#
16a
16b-
16b
16cc
16cc#
16dd
16dd#
=213
4ee
8.ee
16ee
4ee
8.cc
16a
=214
8a
8g#
2g#
8.dd
16b
=215
4ee
8.ee
16ee
8ee
16ff
16ee
16dd
16cc
16b
16a
=216
8a
8g#
2g#
8.dd
16b
=217
8.ee
16cc
4ee
8r
8cc
8dd
8ee
=218
4ee
8ff
8r
8r
8b
8cc
8dd
=219
4dd#
8ee
8r
8r
8a
8b
8cc
=220
8.cc
16b
8.ff
16dd
8.cc
16ee
8.dd
16b
=221
16cc
16aa
16cc
16aa
16cc
16aa
16cc
16aa
16cc
16aa
16cc
16aa
16cc
16aa
16cc
16aa
=222
16b
16aa
16b
16aa
16b
16aa
16b
16aa
16b
16gg
16b
16gg
16b-
16gg
16b-
16gg
=223
16a
16gg
16a
16gg
16a
16gg
16a
16gg
16a
16ff
16a
16ff
16a
16ff
16a
16ff
=224
16g
16ff
16g
16ff
16g
16ff
16g
16ff
16g
16ee
16g
16ee
16g
16ee
16g
16ee
=225
16f
16ee
16f
16ee
16f
16ee
16f
16ee
16f
16dd
16f
16dd
16f
16dd
16f
16dd
=226
16e
16dd
16e
16dd
16e
16cc
16e
16cc
16e
16b
16e
16b
16b
16ee
16b
16ee
=227
8ee
8dd#
8r
8dd
8dd
8cc#
8r
8cc
=228
8a#
8b
8r
8cc#
8r
8dd
8r
8ee
=229
8gg
4ff
8ee
8dd
8cc
8b
8a
=230
4ee
8.ee
16ee
4ee
4ee
=231
4.aa
16gg
16ff
4ee
4dd#
=232
4ee:
8.ee
16ee
4ee
4ee
=233
4.aa
16gg
16ff
4ee
4dd#
=234
16ee
16b
16g#
16b
16ee
16cc
16a
16cc
16ee
16b
16g#
16b
16ee
16cc
16a
16cc
=235
16ee
16b
16g#
16b
16ee
16cc
16a
16cc
16b
16ee
16cc
16ee
16b
16ee
16cc
16ee
=236
4b
4ee
8r
8ee
8ff#
8gg#
=237
16aa
16bb
16gg#
16bb
16aa
16bb
16gg#
16bb
16aa
16bb
16gg
16aa
16ff
16gg
16ee
16ff
=238
16dd
16ee
16cc#
16ee
16dd
16ee
16cc#
16ee
16dd
16ee
16cc
16dd
16b
16cc
16a
16b
=239
16g#
16b
16a
16b
16g#
16b
16a
16b
16g#
16b
16f
16b
16e
16b
16d
16b
=240
16c
16e
16d#
16e
16f
16e
16g#
16e
16a
16e
16b
16e
16cc
16e
16dd
16e
=241
16ee
16ff
16dd#
16ff
16ee
16ff
16dd#
16ff
16ee
16aa
16gg#
16aa
16bb
16aa
16gg#
16aa
=242
16gg
16ff
16ee
16ff
16ee
16dd
16cc#
16dd
16cc
16b-
16a
16b-
16a
16b-
16cc
16dd
=243
16ff
16ee
16dd#
16ee
16dd
16cc
16b
16cc
16b
16a
16g#
16a
16g#
16a
16b
16cc
=244
16dd
16ff
16cc
16ff
16b
16ff
16a
16ff
16g#
16b
16f
16b
16e
16b
16d
16b
=245
16c
16cc
16b
16cc
16dd
16cc
16b
16a
16g#
16dd
16cc#
16dd
16ee
16dd
16cc
16b
=246
16a
16b
16cc
16b
16cc
16dd#
16ee
16dd#
16ee
16gg#
16aa
16gg#
16aa
16gg
16ff
16ee
=247
16ff
16gg
16aa
16ff
16dd
16ee
16ff
16dd
16b
16cc
16dd
16b
16ee
16ff
16dd
16b
=248
16dd#
16ee
16ff
16ee
16dd
16cc
16b
16a
2b
=249
16r
16aa
16gg
16ff
16ee
16ff
16dd#
16ff
16ee
16ff
16dd#
16ff
16ee
16ff
16dd
16ee
=250
16cc
16aa
16gg
16ff
16ee
16ff
16dd#
16ff
16ee
16ff
16dd#
16ff
16ee
16ff
16dd
16ee
=251
16cc
16dd
16ee
16dd
16cc
16b
16a
16g#
16a
16b
16cc
16b
16a
16g
16f
16e
=252
16d
16B-
16f
16d
16b-
16f
16dd
16b-
16ff
16dd
16gg#
16ff
16bb
16gg#
16ddd
16bb
=253
16eee
16ccc
16aa
16ee
16gg
16ff
16ee
16dd
4cc
4b
=254
4a
4r
4r
8gg#
8ee
=255
4aa
4r
4r
8gg#
8ee
=256
4aa
8.ee
32dd
32ee
[2aa
=257
4aa]
8.bb
16ccc
4ddd
8.gg#
32ff#
32gg#
=258
16aa
16gg#
16aa
16ee
16gg
16ff
16ee
16dd
16cc
16dd
16ee
16cc
16b
16cc
16dd
16b
=259
16ddd
16fff
16bb
16ddd
16gg#
16bb
16ff
16gg#
16dd
16ff
16b
16dd
16g#
16b
16f
16g#
=260
1ccc
=261
16r
16aa
16ee
16cc
16a
16e
16c
16A
4e
4ee
=262
4a
8.cc
16cc
4cc
8.cc
16cc
=263
4b
8.b
16b
4ee
8.ee
16ee
=264
4cc
8.aa
16aa
4aa
8.aa
16aa
=265
4aa
8.aa
16aa
4gg#
8.gg#
16gg#
=266
4aa
4ee
4cc
4r
==
*-
